!!!!SEGMENT: pl-sa--193-a-v-23--004_pausch-eugen--missa-in-c-sanctus.krn
!!!cenid: 17xx:639
!!!COM: Pausch, Eugen
!!!COM-rismID:
!!!CDT: 1758-1838
!!!CNT: German
!!!OPR: Missa in C
!!!OTL: Sanctus
!!!OMV: 004
!!!PDT:
!!!AGN: Sacred; Mass
!!!SMS-siglum: PL-SA
!!!SMS-shelfmark: 193/A V 23
!!!SMS-shelfwork: 001-004 M
!!!SMS-variant:
!!!SMS-altvar:
!!!NIFC-rismSourceID: 1001036465
!!!NIFC-islandoraID:
!!!URL-pdf-islandora:
!!!URL-scan: https://bc.bdsandomierz.pl/dlibra/publication/1529/edition/1497/content @EN{Scan on Cyfrowa Biblioteka Diecezjalna w Sandomierzu} @PL{Skany w portalu Cyfrowa Biblioteka Diecezjalna w Sandomierzu}
!!!ONB-nifc: UWAGA: części Mszy: Kyrie, Gloria, Credo, Sanctus, Benedictus, Agnus Dei, Dona Uwaga: brak partii cornu 2.
!!!AIN: 2 clars 2 empty 1 organ 2 violn 1 vox
!!!key:
**kern	**fba	**kern	**dynam	**kern	**dynam	**kern	**text	**kern	**text	**kern	**kern	**kern
*part8	*	*part7	*part7	*part6	*part6	*part5	*part5	*part4	*part4	*part3	*part2	*part1
*staff8	*	*staff7	*	*staff6	*	*staff5	*staff5	*staff4	*staff4	*staff3	*staff2	*staff1
*Iorgan	*	*Ivioln	*	*Ivioln	*	*Iempty	*	*Ivox	*	*Iempty	*Iclars	*Iclars
*I"Organo	*	*I"Violino 2do	*	*I"Violino 1mo	*	*I"Baſso	*	*I"Canto	*	*I"Cornu Primo in C	*I"Clarinetto vel Oboe 2do: in C	*I"Clarinetto vel Oboe 1. in C
*I'org	*	*I'vl II	*	*I'vl I	*	*I'B	*	*I'C	*	*I'cor I	*I'cl II	*I'cl I
*clefF4	*	*clefG2	*	*clefG2	*	*clefF4	*	*clefC1	*	*clefG2	*clefG2	*clefG2
*	*	*	*	*	*	*	*	*	*	*Trd0c0	*	*
*k[]	*	*k[]	*	*k[]	*	*k[]	*	*k[]	*	*k[]	*k[]	*k[]
*C:	*	*C:	*	*C:	*	*C:	*	*C:	*	*C:	*C:	*C:
*M3/4	*	*M3/4	*	*M3/4	*	*M3/4	*	*M3/4	*	*M3/4	*M3/4	*M3/4
=1	=1	=1	=1	=1	=1	=1	=1	=1	=1	=1	=1	=1
*	*	*	*	*	*below	*	*	*2\right	*	*	*	*
!	!	!	!	!&colon;global	!	!	!	!	!	!	!LO:TX:a:t=1.	!LO:TX:a:t=1.
!LO:TX:a:B:t=ada&colon;	!	!LO:TX:a:B:t=ada&colon;	!	!LO:TX:rj:a:B:t=ada&colon;	!	!LO:TX:a:B:t=ada&colon;	!	!LO:TX:a:B:t=ada&colon;	!	!LO:TX:rj:a:B:t=Ada&colon;	!LO:TX:rj:a:B:t=Ada.	!LO:TX:a:B:t=Ada&colon;
8C/	.	8r	.	8r	p	2C/	San-	2cc\	San-	8cc\	2.r	2.r
8r	.	8G/ 8e/	.	8cc\	.	.	.	.	.	8r	.	.
8C/	.	8r	.	8r	.	.	.	.	.	8cc\	.	.
8r	.	8G/ 8e/	.	8cc\	.	.	.	.	.	8r	.	.
8C/	.	8r	.	8r	.	4C/	-ctus	4cc\	-ctus	8cc\	.	.
8r	.	8G/ 8e/	.	8cc\	.	.	.	.	.	8r	.	.
=2	=2	=2	=2	=2	=2	=2	=2	=2	=2	=2	=2	=2
*	*	*	*	*	*	*	*ij	*	*ij	*	*	*
!	!	!	!	!LO:SIC:o=:v:f = for&colon;global	!	!	!	!	!	!	!	!
8.C/L	4 2	8.G/L 8.f/	.	8.dd\L	f	4C/	San-	4dd\	San-	8.dd\L	4r	4r
16C/Jk	.	16G/Jk 16f/	.	16dd\Jk	.	.	.	.	.	16dd\Jk	.	.
4C/	3	4G/ 4e/	.	4cc\	.	4C/	-ctus	4cc\	-ctus	4cc\	4r	4r
4r	.	4r	.	16e/LL	.	4r	.	4r	.	4r	16g/LL	16ee\LL
.	.	.	.	16g/	.	.	.	.	.	.	16e/	16cc\
.	.	.	.	16cc/	.	.	.	.	.	.	16g/	16ee\
.	.	.	.	16ee/JJ	.	.	.	.	.	.	16e/JJ	16cc\JJ
*	*	*	*	*	*	*	*Xij	*	*Xij	*	*	*
=3	=3	=3	=3	=3	=3	=3	=3	=3	=3	=3	=3	=3
!	!	!	!	!	!	!LO:TX:a:t=1.	!	!LO:TX:a:t=1	!	!	!	!
8.C/L	4 2	8.G/L 8.f/	.	8.dd\L	.	2.r	.	2.r	.	8.dd\L	8f/L	8.dd\L
.	.	.	.	.	.	.	.	.	.	.	8f/	.
16C/Jk	.	16G/Jk 16f/	.	16dd\Jk	.	.	.	.	.	16dd\Jk	.	16dd\Jk
4C/	3	4G/ 4e/	.	4cc\	.	.	.	.	.	4cc\	8e/	8cc\L
.	.	.	.	.	.	.	.	.	.	.	8g/J	8ee\J
4r	.	4r	.	4r	.	.	.	.	.	16cc\LL	4e/	4cc\
.	.	.	.	.	.	.	.	.	.	16dd\	.	.
.	.	.	.	.	.	.	.	.	.	16dd\	.	.
.	.	.	.	.	.	.	.	.	.	16ee\JJ	.	.
=4	=4	=4	=4	=4	=4	=4	=4	=4	=4	=4	=4	=4
*	*	*	*	*	*	*2\right	*	*	*	*	*	*
!	!	!	!	!	!	!	!	!	!	!	!LO:TX:a:t=1.	!LO:TX:a:t=1.
8C/	.	8r	.	8r	.	2c\	ſan-	2ee\	ſan-	8ee\	2.r	2.r
8r	.	8cc\	.	8ee\	.	.	.	.	.	8r	.	.
8C/	.	8r	.	8r	.	.	.	.	.	8ee\	.	.
8r	.	8cc\	.	8ee\	.	.	.	.	.	8r	.	.
8C/	.	8r	.	8r	.	4c\	-ctus	4ee\	-ctus	8ee\	.	.
8r	.	8cc\	.	8ee\	.	.	.	.	.	8r	.	.
=5	=5	=5	=5	=5	=5	=5	=5	=5	=5	=5	=5	=5
*	*	*	*	*	*	*	*ij	*	*ij	*	*	*
8.C/L	.	8.dd\L	.	8.ff\L	.	4c\	San-	4ff\	San-	8.ff\L	4r	4r
16C/Jk	.	16dd\Jk	.	16ff\Jk	.	.	.	.	.	16ff\Jk	.	.
4C/	.	4cc\	.	4ee\	.	4C/	-ctus	4ee\	-ctus	4ee\	4r	4r
!	!	!	!	!	!	!	!	!	!	!LO:LB:g=original	!	!
4r	.	4r	.	16g\LL	.	4r	.	4r	.	16ee\LL	16ee\LL	16gg\LL
.	.	.	.	16cc\	.	.	.	.	.	16ff\	16cc\	16ee\
.	.	.	.	16ee\	.	.	.	.	.	16ff\	16ee\	16gg\
.	.	.	.	16gg\JJ	.	.	.	.	.	16gg\JJ	16cc\JJ	16ee\JJ
*	*	*	*	*	*	*	*Xij	*	*Xij	*	*	*
!LO:LB:g=original	!	!LO:LB:g=original	!	!	!	!	!	!	!	!	!	!
=6	=6	=6	=6	=6	=6	=6	=6	=6	=6	=6	=6	=6
!	!	!	!	!	!	!LO:TX:a:t=1.	!	!LO:TX:a:t=1.	!	!	!	!
8.C/L	.	8.dd\L	.	8.ff\L	.	2.r	.	2.r	.	4gg\	8dd\L	8.ff\L
.	.	.	.	.	.	.	.	.	.	.	8dd\	.
16C/Jk	.	16dd\Jk	.	16ff\Jk	.	.	.	.	.	.	.	16ff\Jk
4C/	.	4cc\	.	4ee\	.	.	.	.	.	4r	8cc\	8ee\L
.	.	.	.	.	.	.	.	.	.	.	8ee\J	8gg\J
4r	.	4r	.	4r	.	.	.	.	.	4cc\	4cc\	4ee\
!	!	!	!	!LO:LB:g=original	!	!	!	!	!	!	!	!
=7	=7	=7	=7	=7	=7	=7	=7	=7	=7	=7	=7	=7
*tremolo	*	*	*	*	*	*	*	*	*	*	*2\right	*2\right
*2\right	*	*	*	*	*	*	*	*	*	*	*	*
!LO:SIC:o=:v:2\right&colon;global	!	!	!	!	!	!	!	!	!	!	!	!
!LO:TX:a:i:t=Tutti	!	!	!	!	!	!	!	!	!	!	!	!
8E\L	6	8c/	.	8gg\	.	4E\	Do-	4cc\	Do-	4cc\	2.cc\	2.gg\
8E\	.	4c/	.	4ee\	.	.	.	.	.	.	.	.
8E\	5	.	.	.	.	4E\	-mi-	4cc\	-mi-	4r	.	.
8E\	.	4c/	.	4cc\	.	.	.	.	.	.	.	.
8E\	.	.	.	.	.	4E\	-nus	4cc\	-nus	4r	.	.
8E\J	.	8c/	.	8g/	.	.	.	.	.	.	.	.
*XTremolo	*	*	*	*	*	*	*	*	*	*	*	*
=8	=8	=8	=8	=8	=8	=8	=8	=8	=8	=8	=8	=8
!	!	!LO:TX:a:t=P:problem=mixed beam	!	!LO:TX:a:t=P:problem=mixed beam	!	!	!	!	!	!	!	!
4F\	.	8.c/L	.	8.a/L	.	2F\	De-	4cc\	De-	4r	2dd\	2aa\
.	.	16ff\Jk	.	16aa\Jk	.	.	.	.	.	.	.	.
4r	.	4ff\	.	4aa\	.	.	.	4ff\	.	4ff\	.	.
!LO:SIC:s=:v:4C#	!	!	!	!	!	!	!	!	!	!	!	!
4C/	.	4ee\	.	4gg\	.	4C#X/	-us	4ee\	-us	4ee\	4ee\	4gg\
!	!	!	!	!	!	!	!	!	!	!	!LO:LB:g=original	!LO:LB:g=original
=9	=9	=9	=9	=9	=9	=9	=9	=9	=9	=9	=9	=9
!	!	!	!	!	!	!	!	!LO:SIC:s=:v:Sa-	!	!LO:SIC:o=:v:brak t. 9	!	!
4D\	6	16dd\LL	.	16ff\LL	.	4D/	Sa-	16dd\LL	Sab-	2.ryy	2ee\	2ff\
.	.	16ee\	.	16gg\	.	.	.	16ee\	.	.	.	.
.	.	16ff\	.	16aa\	.	.	.	16ff\	.	.	.	.
.	.	16ee\JJ	.	16gg\JJ	.	.	.	16ee\JJ	.	.	.	.
!	!	!	!	!	!	!	!	!LO:LB:g=original	!	!	!	!
4BB\	5	4dd\	.	4ff\	.	4BB/	.	4dd\	.	.	.	.
4C\	7	4cc\	.	4ee\	.	4Cn/	-ba-	4cc\	-ba-	.	4cc\	4ee\
!	!	!	!	!	!	!LO:LB:g=original	!	!	!	!	!	!
=10	=10	=10	=10	=10	=10	=10	=10	=10	=10	=10	=10	=10
*tremolo	*	*	*	*	*	*	*	*	*	*2\right	*	*
8G\L	7 3	8b\	.	8dd\	.	4GG/	-oth	4b\	-oth	2.gg\	4b\	4dd\
8G\	.	4b\	.	4dd\	.	.	.	.	.	.	.	.
8G\	6 4	.	.	.	.	4r	.	4r	.	.	4r	4r
8G\	.	16cc\LL	.	16ee\LL	.	.	.	.	.	.	.	.
.	.	16dd\JJ	.	16ff\JJ	.	.	.	.	.	.	.	.
.	.	8qqdd/	.	8qqff/	.	.	.	.	.	.	.	.
8G\	.	8cc\L	.	8ee\L	.	4r	.	4r	.	.	4cc\	8ee\L
8G\J	.	16b\L	.	16dd\L	.	.	.	.	.	.	.	16dd\L
*XTremolo	*	*	*	*	*	*	*	*	*	*	*	*
.	.	16a\JJ	.	16cc\JJ	.	.	.	.	.	.	.	16cc\JJ
=11	=11	=11	=11	=11	=11	=11	=11	=11	=11	=11	=11	=11
*tremolo	*	*	*	*	*	*	*	*	*	*	*	*
!	!	!	!	!	!	!LO:TX:a:t=1	!	!	!	!	!	!
8G\L	5 3	4g/	.	8b\	.	2.r	.	2.r	.	2.gg\	4b\	4dd\
8G\	.	.	.	4dd\	.	.	.	.	.	.	.	.
8G\	6 4	8r	.	.	.	.	.	.	.	.	4r	4r
8G\	.	16cc\LL	.	16ee\LL	.	.	.	.	.	.	.	.
.	.	16dd\JJ	.	16ff\JJ	.	.	.	.	.	.	.	.
!	!	!	!	!LO:SIC:s=:v:8qff	!	!	!	!	!	!	!	!
.	.	8qqdd/	.	8qqgg/	.	.	.	.	.	.	.	.
8G\	.	8cc\L	.	8ee\L	.	.	.	.	.	.	4cc\	8ee\L
8G\J	.	16b\L	.	16dd\L	.	.	.	.	.	.	.	16dd\L
*XTremolo	*	*	*	*	*	*	*	*	*	*	*	*
.	.	16a\JJ	.	16cc\JJ	.	.	.	.	.	.	.	16cc\JJ
=12	=12	=12	=12	=12	=12	=12	=12	=12	=12	=12	=12	=12
!	!	!	!	!	!	!LO:TX:a:B:t=allo	!	!LO:TX:a:B:t=allo	!	!	!	!LO:SIC:o=:v:brak taktów nr 12-23
4G\	.	4g/	.	8b/	.	2.r	.	8r	.	4gg\	4dd\	2.ryy
!	!	!	!	!LO:TX:a:B:t=allo&colon;	!	!	!	!	!	!	!	!
.	.	.	.	8g/L	.	.	.	8g\	Ple-	.	.	.
!LO:TX:a:B:t=allo	!	!LO:TX:a:B:t=Allo&colon;	!	!	!	!	!	!	!	!	!	!
4r	.	4r	.	8g/	.	.	.	8g\	-ni	4r	4r	.
.	.	.	.	8g/J	.	.	.	8g\	ſunt	.	.	.
4B\	6	16g/LL	.	8.dd\L	.	.	.	8dd\L	Cae-	4dd\	4dd\	.
.	.	16g/	.	.	.	.	.	.	.	.	.	.
.	5	16g/	.	.	.	.	.	16ee\L	.	.	.	.
.	.	16g/JJ	.	32ee\LL	.	.	.	16ff\JJ	.	.	.	.
.	.	.	.	32ff\JJJ	.	.	.	.	.	.	.	.
!	!	!LO:LB:g=original	!	!	!	!	!	!	!	!	!	!
=13	=13	=13	=13	=13	=13	=13	=13	=13	=13	=13	=13	=13
*	*	*tremolo	*	*	*	*	*	*	*	*	*	*
!LO:TX:rj:i:b:t=Pleni	!	!	!	!	!	!	!	!	!	!	!LO:TX:a:B:t=allo&colon;	!
4c\	.	16g/LL	.	8ee\L	.	8r	.	8ee\	-li	4ee\	8cc\L	2.ryy
.	.	16g/	.	.	.	.	.	.	.	.	.	.
.	.	16g/	.	8gg\	.	8C/	Ple-	8gg\	cae-	.	8ee\	.
.	.	16g/	.	.	.	.	.	.	.	.	.	.
4r	.	16g/	.	8ee\	.	8C/	-ni	8ee\	-li	4r	8cc\	.
.	.	16g/	.	.	.	.	.	.	.	.	.	.
.	.	16g/	.	8cc\J	.	8C/	ſunt	8cc\	et	.	8g\J	.
.	.	16g/	.	.	.	.	.	.	.	.	.	.
4F\	4	16g/	.	8.b\L	.	4F\	Cae-	8.b\L	ter-	4dd\	4g/	.
.	.	16g/	.	.	.	.	.	.	.	.	.	.
.	2	16g/	.	.	.	.	.	.	.	.	.	.
.	.	16g/JJ	.	32cc\LL	.	.	.	32cc\LL	.	.	.	.
.	.	.	.	32dd\JJJ	.	.	.	32dd\JJJ	.	.	.	.
=14	=14	=14	=14	=14	=14	=14	=14	=14	=14	=14	=14	=14
4E\	.	16g/LL	.	8cc/L	.	4E\	-li	8cc\	-ra	4cc\	4g/	2.ryy
.	.	16g/	.	.	.	.	.	.	.	.	.	.
.	.	16g/	.	8g/	.	.	.	8g\	ple-	.	.	.
.	.	16g/	.	.	.	.	.	.	.	.	.	.
4r	.	16g/	.	8g/	.	4r	.	8g\	-ni	4r	4r	.
.	.	16g/	.	.	.	.	.	.	.	.	.	.
.	6	16g/	.	8g/J	.	.	.	8g\	ſunt	.	.	.
.	.	16g/	.	.	.	.	.	.	.	.	.	.
4B\	5	16g/	.	8.dd\L	.	4r	.	8.dd\L	cae-	4dd\	4dd\	.
.	.	16g/	.	.	.	.	.	.	.	.	.	.
.	.	16g/	.	.	.	.	.	.	.	.	.	.
.	.	16g/JJ	.	32ee\LL	.	.	.	32ee\LL	.	.	.	.
.	.	.	.	32ff\JJJ	.	.	.	32ff\JJJ	.	.	.	.
!	!	!	!	!LO:LB:g=original	!	!	!	!LO:LB:g=original	!	!	!	!
=15	=15	=15	=15	=15	=15	=15	=15	=15	=15	=15	=15	=15
4c\	.	16g/LL	.	8ee\L	.	8r	.	8ee\	-li	4ee\	8cc\L	2.ryy
.	.	16g/	.	.	.	.	.	.	.	.	.	.
.	.	16g/	.	8gg\	.	8C/	Cae-	8gg\	cae-	.	8ee\	.
.	.	16g/	.	.	.	.	.	.	.	.	.	.
4r	.	16g/	.	8ee\	.	8C/	-li	8ee\	-li	4r	8cc\	.
.	.	16g/	.	.	.	.	.	.	.	.	.	.
.	.	16g/	.	8cc\J	.	8C/	et	8cc\	et	.	8g\J	.
.	.	16g/	.	.	.	.	.	.	.	.	.	.
4F\	4 2	16g/	.	8.b\L	.	4F\	ter-	8.b\L	ter-	4dd\	4g/	.
.	.	16g/	.	.	.	.	.	.	.	.	.	.
.	.	16g/	.	.	.	.	.	.	.	.	.	.
.	.	16g/JJ	.	32cc\LL	.	.	.	32cc\LL	.	.	.	.
.	.	.	.	32dd\JJJ	.	.	.	32dd\JJJ	.	.	.	.
!LO:LB:g=original	!	!	!	!	!	!	!	!	!	!LO:LB:g=original	!	!
=16	=16	=16	=16	=16	=16	=16	=16	=16	=16	=16	=16	=16
4E\	6	16g/LL	.	8cc\L	.	4E\	-ra	8cc\	-ra	4cc\	2.g/	2.ryy
.	.	16c/	.	.	.	.	.	.	.	.	.	.
.	.	16c/	.	8gg\	.	.	.	8gg\	glo-	.	.	.
.	.	16c/JJ	.	.	.	.	.	.	.	.	.	.
4r	.	16c/LL	.	8ee\	.	4r	.	8ee\	-ri-	4r	.	.
.	.	16c/	.	.	.	.	.	.	.	.	.	.
.	6	16c/	.	8cc\J	.	.	.	8cc\	-a	.	.	.
.	.	16c/	.	.	.	.	.	.	.	.	.	.
4E\	5	16c/	.	8.b-X\L	.	8.E\L	glo-	4b\	tu-	4cc\	.	.
.	.	16c/	.	.	.	.	.	.	.	.	.	.
.	.	16c/	.	.	.	.	.	.	.	.	.	.
.	.	16c/JJ	.	32cc\LL	.	16E\Jk	-ri-	.	.	.	.	.
.	.	.	.	32b-\JJJ	.	.	.	.	.	.	.	.
!	!	!	!	!	!	!LO:LB:g=original	!	!	!	!	!	!
=17	=17	=17	=17	=17	=17	=17	=17	=17	=17	=17	=17	=17
4F\	.	8c/L	.	8a\L	.	4F\	-a	8a\	-a	4cc\	2.a/	2.ryy
.	.	16d/L	.	8aa\	.	.	.	8aa\	glo-	.	.	.
.	.	16d/JJ	.	.	.	.	.	.	.	.	.	.
4r	.	16d/LL	.	8ff#X\	.	4r	.	8ff#X\	-ri-	4r	.	.
.	.	16d/	.	.	.	.	.	.	.	.	.	.
.	.	16d/	.	8dd\J	.	.	.	8dd\	-a	.	.	.
.	.	16d/	.	.	.	.	.	.	.	.	.	.
4F#X\	6 5	16d/	.	8.cc\L	.	4F#X\	Tu-	4cc\	tu-	4dd\	.	.
.	.	16d/	.	.	.	.	.	.	.	.	.	.
.	.	16d/	.	.	.	.	.	.	.	.	.	.
.	.	16d/JJ	.	32dd\LL	.	.	.	.	.	.	.	.
.	.	.	.	32cc\JJJ	.	.	.	.	.	.	.	.
*	*	*Xtremolo	*	*	*	*	*	*	*	*	*	*
=18	=18	=18	=18	=18	=18	=18	=18	=18	=18	=18	=18	=18
4G\	.	4G/	.	8bn/L	.	4G\	-a	4dd\	-a	4dd\	4g/	2.ryy
.	.	.	.	8g/	.	.	.	.	.	.	.	.
4r	.	4r	.	8f#X/	.	4r	.	4r	.	4r	4r	.
.	.	.	.	8g/	.	.	.	.	.	.	.	.
4r	.	4r	.	8f#/	.	4r	.	4r	.	4r	4r	.
.	.	.	.	8g/J	.	.	.	.	.	.	.	.
=19	=19	=19	=19	=19	=19	=19	=19	=19	=19	=19	=19	=19
!	!	!	!	!LO:SIC:o=:v:znak początku repetycji	!	!	!	!LO:TX:a:t=1	!	!LO:TX:a:t=1.	!	!
4r	.	8r	.	8cc\L	.	2.r	.	2.r	.	2.r	4r	2.ryy
.	.	8ee\L	.	8gg\	.	.	.	.	.	.	.	.
4r	.	8ee\	.	8gg\	.	.	.	.	.	.	4r	.
.	.	8ee\J	.	8gg\J	.	.	.	.	.	.	.	.
4C/	6\	16ff\LL	.	16aa\LL	.	.	.	.	.	.	4ee\	.
.	.	16ee\	.	16gg\	.	.	.	.	.	.	.	.
.	.	16dd\	.	16ff\	.	.	.	.	.	.	.	.
.	.	16cc#X\JJ	.	16ee\JJ	.	.	.	.	.	.	.	.
=20	=20	=20	=20	=20	=20	=20	=20	=20	=20	=20	=20	=20
*^	*	*	*	*	*	*	*	*	*	*	*	*
*	*	*	*2\right	*	*	*	*	*	*	*	*	*	*
*	*	*	*tremolo	*	*	*	*	*	*	*	*	*	*
4GG/	4ryy	7	16dd\LL	.	8ff\L	.	4r	.	4r	.	4r	4dd\	2.ryy
.	.	.	16dd\	.	.	.	.	.	.	.	.	.	.
.	.	.	16dd\	.	8ff\	.	.	.	.	.	.	.	.
.	.	.	16dd\	.	.	.	.	.	.	.	.	.	.
4r	4ryy	.	16dd\	.	8ff\	.	4r	.	4r	.	4r	4r	.
.	.	.	16dd\	.	.	.	.	.	.	.	.	.	.
.	.	.	16dd\	.	8ff\J	.	.	.	.	.	.	.	.
.	.	.	16dd\JJ	.	.	.	.	.	.	.	.	.	.
!LO:SIC:o:s=:v:t:problem= niepotrzebna pauza	!	!	!	!	!	!	!	!	!	!	!	!	!
4r	4GG/	7	16ee\LL	.	16gg\LL	.	8r	.	8r	.	8r	4dd\	.
.	.	.	16dd\	.	16ff\	.	.	.	.	.	.	.	.
.	.	.	16ccn\	.	16ee\	.	8G\	o-	8dd\	o-	8dd\	.	.
.	.	.	16b\JJ	.	16dd\JJ	.	.	.	.	.	.	.	.
*	*	*	*Xtremolo	*	*	*	*	*	*	*	*	*	*
*v	*v	*	*	*	*	*	*	*	*	*	*	*	*
!	!	!	!	!	!	!	!	!LO:LB:g=original	!	!	!	!
=21	=21	=21	=21	=21	=21	=21	=21	=21	=21	=21	=21	=21
8.C\L	.	8.cc\L	.	8.ee\L	.	8c\L	-ſan-	8.ee\L	-ſan-	8.ee\L	4cc\	2.ryy
.	.	.	.	.	.	8F\J	.	.	.	.	.	.
16F\Jk	6 5	16a\Jk	.	16dd\Jk	.	.	.	16dd\Jk	.	16ff\Jk	.	.
4G\	4	4g/	.	4cc\	.	4G\	.	4cc\	.	4ee\	4cc\	.
!	!	!	!	!LO:SIC:o=:v:znak końca repetycji	!	!	!	!	!	!	!	!
4GG/	3	4fn/	.	4b\	.	4GG/	.	4b\	.	4dd\	4b\	.
!	!	!LO:LB:g=original	!	!	!	!	!	!	!	!	!LO:LB:g=original	!
=22	=22	=22	=22	=22	=22	=22	=22	=22	=22	=22	=22	=22
!	!	!LO:TX:a:t=P:problem=mixed beam	!	!LO:SIC:o=:v:powtórzenie tt. 19-21 oznaczone znakami repetycji	!	!	!	!	!	!	!	!
4C/	.	8e/L	p	8cc\Lyy	.	4C/	-na	4cc\	-na	4cc\	4cc\	2.ryy
.	.	8ee\	.	8gg\yy	.	.	.	.	.	.	.	.
4r	.	8ee\	.	8gg\yy	.	4r	.	4r	.	4r	4r	.
.	.	8ee\J	.	8gg\Jyy	.	.	.	.	.	.	.	.
4C/	.	16ff\LL	.	16aa\LLyy	.	4r	.	4r	.	4r	4r	.
.	.	16ee\	.	16gg\yy	.	.	.	.	.	.	.	.
.	.	16dd\	.	16ff\yy	.	.	.	.	.	.	.	.
.	.	16cc#X\JJ	.	16ee\JJyy	.	.	.	.	.	.	.	.
=23	=23	=23	=23	=23	=23	=23	=23	=23	=23	=23	=23	=23
4GG/	7	8dd\L	.	8ff\Lyy	.	4r	.	4r	.	4r	4r	2.ryy
.	.	8dd\	.	8ff\yy	.	.	.	.	.	.	.	.
4r	.	8dd\	.	8ff\yy	.	4r	.	4r	.	4r	4r	.
.	.	8dd\J	.	8ff\Jyy	.	.	.	.	.	.	.	.
4GG/	7	16ee\LL	.	16gg\LLyy	.	8r	.	8r	.	4dd\	4dd\	.
.	.	16dd\	.	16ff\yy	.	.	.	.	.	.	.	.
.	.	16cc\	.	16ee\yy	.	8G\	in	8dd\	in	.	.	.
.	.	16b\JJ	.	16dd\JJyy	.	.	.	.	.	.	.	.
=24	=24	=24	=24	=24	=24	=24	=24	=24	=24	=24	=24	=24
8.C\L	.	8.g/L	.	8.ee\Lyy	.	8c\L	ex-	8.ee\L	ex-	8.ee\L	4cc\	4ee\
.	.	.	.	.	.	8F\J	.	.	.	.	.	.
16F\Jk	6 5	16f/Jk	.	16dd\Jkyy	.	.	.	16dd\Jk	.	16ff\Jk	.	.
4G\	4	4e/	.	4cc\yy	.	4G\	-cel-	4cc\	-cel-	4ee\	4cc\	4ee\
4GG/	3	4G/	.	4b\yy	.	4GG/	.	4b\	.	4dd\	8b\L	4dd\
.	.	.	.	.	.	.	.	.	.	.	8g\J	.
!	!	!	!	!	!	!	!	!	!	!LO:LB:g=original	!	!
=25	=25	=25	=25	=25	=25	=25	=25	=25	=25	=25	=25	=25
4C/	.	4G/ 4e/	.	4G/ 4e/ 4cc/	.	4C/	-ſis	4cc\	-ſis	4cc\	4e/	4cc\
4r	.	4r	.	4r	.	4r	.	4r	.	4r	4r	4r
4r	.	4r	.	4r	.	4r	.	4r	.	4r	4r	4r
==	==	==	==	==	==	==	==	==	==	==	==	==
*-	*-	*-	*-	*-	*-	*-	*-	*-	*-	*-	*-	*-
!!!system-decoration: [(s1,s2)][(s3)][(s4,s5)][(s6,s7)]s8
!!!RDF**kern: > = above
!!!RDF**kern: < = below
!!!RDF**kern: p = p.
!!!RDF**kern: f = for
!!!EED: Leszek Kubiak
!!!EEV: 2020-10-08
!!!ENC: Andrzej Kubiczek
!!!END: 2020-06-02
